X: 29324
T: New York, The
R: jig
M: 6/8
K: Cmajor
|:gec ceg|fd=B =Bdf|edc cde|fef a2 f|
gec ceg|fd=B def|ece dBG|Bcc c2 z:|
|:CEG cGE|FEF EDE|CEG cGc|ece d2 B|
ced cAE|FEF DEF|EDE FDB,|DCC C2z:|

